priv/static/svgs/icons_new/controls-diagonals-insight.svg

<svg width="32" height="32" viewBox="0 0 32 32" fill="none" xmlns="http://www.w3.org/2000/svg">
<path d="M25.4973 6.5L18.2562 13.7411M24.4111 13.7411L18.2668 13.7411V7.59683M25.3295 25.3244L18.0858 18.0858M18.0858 18.0858L18.0858 24.2301M18.0858 18.0858L24.2301 18.0858M6.5 25.5L13.7437 18.2615M13.7437 18.2615L13.7437 24.4058M13.7437 18.2615H7.59942M6.50524 6.5L13.7464 13.7411M7.59141 13.7411L13.7357 13.7411V7.59683" stroke="black" stroke-linecap="round" stroke-linejoin="round"/>
</svg>

<svg width="32" height="32" viewBox="0 0 32 32" fill="none" xmlns="http://www.w3.org/2000/svg">
  <symbol id="item" viewBox="0 0 32 32" stroke-width="1" fill="none">
    <path d="m25.497 6.5-7.24 7.241m6.154 0h-6.144V7.597m7.063 17.727-7.244-7.238m0 0v6.144m0-6.144h6.144M6.5 25.5l7.244-7.238m0 0v6.144m0-6.144H7.599M6.505 6.5l7.241 7.241m-6.155 0h6.145V7.597" stroke="currentColor" stroke-linecap="round" stroke-linejoin="round"/>
  </symbol>
</svg>
